( Made using CamBam - http://www.cambam.co.uk )
( Portes R2 3/3/2016 1:03:22 PM )
( T0 : 1.5 )
G21 G90 G64 G40
G0 Z3.0
( T0 : 1.5 )
T0 M6
( Contour1 )
G17
M3 S1000
G0 X25.0732 Y-14.5686
G1 F300.0 Z-1.0
G2 F800.0 X23.9482 Y-15.2181 I-0.75 J0.0
G2 Y-13.9191 I0.375 J0.6495
G2 X25.0732 Y-14.5686 I0.375 J-0.6495
G1 F300.0 Z-2.0
G2 F800.0 X23.9482 Y-15.2181 I-0.75 J0.0
G2 Y-13.9191 I0.375 J0.6495
G2 X25.0732 Y-14.5686 I0.375 J-0.6495
G1 F300.0 Z-2.99
G2 F800.0 X23.9482 Y-15.2181 I-0.75 J0.0
G2 Y-13.9191 I0.375 J0.6495
G2 X25.0732 Y-14.5686 I0.375 J-0.6495
G1 F300.0 Z-3.0
G2 F800.0 X23.9482 Y-15.2181 I-0.75 J0.0
G2 Y-13.9191 I0.375 J0.6495
G2 X25.0732 Y-14.5686 I0.375 J-0.6495
G0 Z3.0
G0 X33.5732
G1 F300.0 Z-1.0
G2 F800.0 X33.9482 Y-13.9191 I0.75 J0.0
G2 X35.0732 Y-14.5686 I0.375 J-0.6495
G2 X33.9482 Y-15.2181 I-0.75 J0.0
G2 X33.5732 Y-14.5686 I0.375 J0.6495
G1 F300.0 Z-2.0
G2 F800.0 X33.9482 Y-13.9191 I0.75 J0.0
G2 X35.0732 Y-14.5686 I0.375 J-0.6495
G2 X33.9482 Y-15.2181 I-0.75 J0.0
G2 X33.5732 Y-14.5686 I0.375 J0.6495
G1 F300.0 Z-2.99
G2 F800.0 X33.9482 Y-13.9191 I0.75 J0.0
G2 X35.0732 Y-14.5686 I0.375 J-0.6495
G2 X33.9482 Y-15.2181 I-0.75 J0.0
G2 X33.5732 Y-14.5686 I0.375 J0.6495
G1 F300.0 Z-3.0
G2 F800.0 X33.9482 Y-13.9191 I0.75 J0.0
G2 X35.0732 Y-14.5686 I0.375 J-0.6495
G2 X33.9482 Y-15.2181 I-0.75 J0.0
G2 X33.5732 Y-14.5686 I0.375 J0.6495
( Contour2 )
S1000
G0 Z3.0
G0 X135.3232 Y-8.8186
G1 F300.0 Z-1.0
G1 F800.0 X82.25
G1 X80.0 Z0.0
G1 X77.75 Z-1.0
G1 X45.3232
G3 X44.5732 Y-9.5686 I0.0 J-0.75
G1 Y-9.8186
G1 X44.7929 Y-10.0383
G1 X44.5732 Y-9.8186
G1 X10.3232
G3 X9.5732 Y-10.5686 I0.0 J-0.75
G1 Y-21.0686
G1 Y-23.3186 Z0.0
G1 Y-25.5686 Z-1.0
G1 Y-44.5686
G3 X10.3232 Y-45.3186 I0.75 J0.0
G1 X49.5732
G1 X49.7929 Y-45.099
G1 X49.5732 Y-45.3186
G1 Y-69.5686
G3 X50.3232 Y-70.3186 I0.75 J0.0
G1 X83.75
G1 X86.0 Z0.0
G1 X88.25 Z-1.0
G1 X135.3232
G3 X136.0732 Y-69.5686 I0.0 J0.75
G1 Y-28.25
G1 Y-26.0 Z0.0
G1 Y-23.75 Z-1.0
G1 Y-9.5686
G3 X135.3232 Y-8.8186 I-0.75 J0.0
G1 F300.0 Z-2.0
G1 F800.0 X82.25
G1 X80.0 Z0.0
G1 X77.75 Z-2.0
G1 X45.3232
G3 X44.5732 Y-9.5686 I0.0 J-0.75
G1 Y-9.8186
G1 X44.7929 Y-10.0383
G1 X44.5732 Y-9.8186
G1 X10.3232
G3 X9.5732 Y-10.5686 I0.0 J-0.75
G1 Y-21.0686
G1 Y-23.3186 Z0.0
G1 Y-25.5686 Z-2.0
G1 Y-44.5686
G3 X10.3232 Y-45.3186 I0.75 J0.0
G1 X49.5732
G1 X49.7929 Y-45.099
G1 X49.5732 Y-45.3186
G1 Y-69.5686
G3 X50.3232 Y-70.3186 I0.75 J0.0
G1 X83.75
G1 X86.0 Z0.0
G1 X88.25 Z-2.0
G1 X135.3232
G3 X136.0732 Y-69.5686 I0.0 J0.75
G1 Y-28.25
G1 Y-26.0 Z0.0
G1 Y-23.75 Z-2.0
G1 Y-9.5686
G3 X135.3232 Y-8.8186 I-0.75 J0.0
G1 F300.0 Z-2.99
G1 F800.0 X82.25
G1 X80.0 Z0.0
G1 X77.75 Z-2.99
G1 X45.3232
G3 X44.5732 Y-9.5686 I0.0 J-0.75
G1 Y-9.8186
G1 X44.7929 Y-10.0383
G1 X44.5732 Y-9.8186
G1 X10.3232
G3 X9.5732 Y-10.5686 I0.0 J-0.75
G1 Y-21.0686
G1 Y-23.3186 Z0.0
G1 Y-25.5686 Z-2.99
G1 Y-44.5686
G3 X10.3232 Y-45.3186 I0.75 J0.0
G1 X49.5732
G1 X49.7929 Y-45.099
G1 X49.5732 Y-45.3186
G1 Y-69.5686
G3 X50.3232 Y-70.3186 I0.75 J0.0
G1 X83.75
G1 X86.0 Z0.0
G1 X88.25 Z-2.99
G1 X135.3232
G3 X136.0732 Y-69.5686 I0.0 J0.75
G1 Y-28.25
G1 Y-26.0 Z0.0
G1 Y-23.75 Z-2.99
G1 Y-9.5686
G3 X135.3232 Y-8.8186 I-0.75 J0.0
G1 F300.0 Z-3.0
G1 F800.0 X82.25
G1 X80.0 Z0.0
G1 X77.75 Z-3.0
G1 X45.3232
G3 X44.5732 Y-9.5686 I0.0 J-0.75
G1 Y-9.8186
G1 X44.7929 Y-10.0383
G1 X44.5732 Y-9.8186
G1 X10.3232
G3 X9.5732 Y-10.5686 I0.0 J-0.75
G1 Y-21.0686
G1 Y-23.3186 Z0.0
G1 Y-25.5686 Z-3.0
G1 Y-44.5686
G3 X10.3232 Y-45.3186 I0.75 J0.0
G1 X49.5732
G1 X49.7929 Y-45.099
G1 X49.5732 Y-45.3186
G1 Y-69.5686
G3 X50.3232 Y-70.3186 I0.75 J0.0
G1 X83.75
G1 X86.0 Z0.0
G1 X88.25 Z-3.0
G1 X135.3232
G3 X136.0732 Y-69.5686 I0.0 J0.75
G1 Y-28.25
G1 Y-26.0 Z0.0
G1 Y-23.75 Z-3.0
G1 Y-9.5686
G3 X135.3232 Y-8.8186 I-0.75 J0.0
G0 Z3.0
M5
M30
